X: 11001
T: A & E Jig
C: Bob McQuillen  9 April 2000
B: Bob's Note Book 11 #1
R: jig
Z: 2005 John Chambers <jc:trillian.mit.edu>
M: 6/8
L: 1/8
K: C
A \
| GEG AGE | CEG c2A | GAc d2A | GAc e2c |\
| GEG AGE | CEG c2A | Bcd dcB | cGE C2 :|
|: c \
| BAB G2e | fed c2c | BAB Gcd | ecA G2E |\
| FEF E2E | ABc def | edc BAB | dcc c2 :|
%%begintext align
%% Each January, dancers from all over the country attend the Ralph  Page  Dance
%% Legacy Weekend at the University of New Hampshire.  And every year we are all
%% made welcome by the smiling faces of Angie Taylor and Eleanor Strong, who  do
%% all  in  their  power  to  make certain that we are well-fed for the weekend.
%% Thanks loads, dear friends; you sure keep me and my tummy happy! :-)!
%%endtext

%%sep 1 1 500

%%sep 1 1 500

